ExpEYES17/UserManual/fr/rst/exp/schematics/res-parallel.svg

<?xml version="1.0" encoding="UTF-8" standalone="no"?>
<svg
   xmlns:dc="http://purl.org/dc/elements/1.1/"
   xmlns:cc="http://creativecommons.org/ns#"
   xmlns:rdf="http://www.w3.org/1999/02/22-rdf-syntax-ns#"
   xmlns:svg="http://www.w3.org/2000/svg"
   xmlns="http://www.w3.org/2000/svg"
   xmlns:sodipodi="http://sodipodi.sourceforge.net/DTD/sodipodi-0.dtd"
   xmlns:inkscape="http://www.inkscape.org/namespaces/inkscape"
   version="1.1"
   id="res-parallel"
   width="100%"
   height="100%"
   viewBox="-6 -6 438 230"
   sodipodi:docname="res-parallel.svg"
   inkscape:export-filename="/home/georgesk/developpement/expeyes/expeyes/ExpEYES17/UserManual/fr/rst/exp/schematics/res-parallel.png"
   inkscape:export-xdpi="66.359444"
   inkscape:export-ydpi="66.359444"
   inkscape:version="0.92.2 (5c3e80d, 2017-08-06)">
  <metadata
     id="metadata65">
    <rdf:RDF>
      <cc:Work
         rdf:about="">
        <dc:format>image/svg+xml</dc:format>
        <dc:type
           rdf:resource="http://purl.org/dc/dcmitype/StillImage" />
        <dc:title></dc:title>
      </cc:Work>
    </rdf:RDF>
  </metadata>
  <defs
     id="defs63" />
  <sodipodi:namedview
     pagecolor="#ffffff"
     bordercolor="#666666"
     borderopacity="1"
     objecttolerance="10"
     gridtolerance="10"
     guidetolerance="10"
     inkscape:pageopacity="0"
     inkscape:pageshadow="2"
     inkscape:window-width="1668"
     inkscape:window-height="1013"
     id="namedview61"
     showgrid="false"
     inkscape:zoom="2.4520548"
     inkscape:cx="219"
     inkscape:cy="115"
     inkscape:window-x="0"
     inkscape:window-y="0"
     inkscape:window-maximized="1"
     inkscape:current-layer="res-parallel" />
  <desc
     id="desc2">
XCircuit Version 3.7
File &quot;res-parallel.ps&quot; Page 1
</desc>
  <text
     font-size="40"
     id="text6"
     style="font-size:40px;font-family:Helvetica;fill:#000000;stroke:none"
     x="31.401251"
     y="62.580002">
    <tspan
       x="31.401251"
       y="62.580002"
       id="tspan4">SEN</tspan>
  </text>
  <text
     font-size="40"
     id="text12"
     style="font-size:40px;font-family:Helvetica;fill:#000000;stroke:none"
     x="299.78"
     y="62.580002">
    <tspan
       x="299.78"
       y="62.580002"
       id="tspan10">GND</tspan>
  </text>
  <path
     style="fill:none;stroke:#000000;stroke-width:2;stroke-linecap:round;stroke-linejoin:bevel"
     inkscape:connector-curvature="0"
     id="path16"
     d="m 144,112 h 28" />
  <path
     style="fill:none;stroke:#000000;stroke-width:2;stroke-linecap:round;stroke-linejoin:bevel"
     inkscape:connector-curvature="0"
     id="path18"
     d="M 272,112 H 244" />
  <path
     style="fill:none;stroke:#000000;stroke-width:2;stroke-linecap:round;stroke-linejoin:bevel"
     inkscape:connector-curvature="0"
     id="path20"
     d="m 244,112 -6,-14 -12,28 -12,-28 -12,28 -12,-28 -12,28 -6,-14" />
  <path
     style="fill:none;stroke:#000000;stroke-width:2;stroke-linecap:round;stroke-linejoin:bevel"
     inkscape:connector-curvature="0"
     id="path22"
     d="M 288,16 V 80 H 400 V 16 Z" />
  <path
     style="fill:none;stroke:#000000;stroke-width:2;stroke-linecap:round;stroke-linejoin:bevel"
     inkscape:connector-curvature="0"
     id="path24"
     d="M 16,16 V 80 H 128 V 16 Z" />
  <text
     font-size="40"
     id="text28"
     style="font-size:40px;font-family:Helvetica;fill:#000000;stroke:none"
     x="192"
     y="210">
    <tspan
       x="192"
       y="210"
       id="tspan26">R1</tspan>
  </text>
  <circle
     style="fill:none;stroke:#000000;stroke-width:2;stroke-linecap:round;stroke-linejoin:bevel"
     r="16"
     id="ellipse32"
     cy="160"
     cx="288" />
  <circle
     style="fill:none;stroke:#000000;stroke-width:2;stroke-linecap:round;stroke-linejoin:bevel"
     r="16"
     id="ellipse34"
     cy="160"
     cx="128" />
  <path
     style="fill:none;stroke:#000000;stroke-width:2;stroke-linecap:round;stroke-linejoin:bevel"
     inkscape:connector-curvature="0"
     id="path36"
     d="M 0,0 V 224 H 432 V 0 Z" />
  <path
     style="fill:none;stroke:#000000;stroke-width:2;stroke-linecap:round;stroke-linejoin:bevel"
     inkscape:connector-curvature="0"
     id="path38"
     d="m 144,160 h 28" />
  <path
     style="fill:none;stroke:#000000;stroke-width:2;stroke-linecap:round;stroke-linejoin:bevel"
     inkscape:connector-curvature="0"
     id="path40"
     d="M 272,160 H 244" />
  <path
     style="fill:none;stroke:#000000;stroke-width:2;stroke-linecap:round;stroke-linejoin:bevel"
     inkscape:connector-curvature="0"
     id="path42"
     d="m 244,160 -6,-14 -12,28 -12,-28 -12,28 -12,-28 -12,28 -6,-14" />
  <text
     font-size="40"
     id="text46"
     style="font-size:40px;font-family:Helvetica;fill:#000000;stroke:none"
     x="192"
     y="88">
    <tspan
       x="192"
       y="88"
       id="tspan44">R2</tspan>
  </text>
  <path
     style="fill:none;stroke:#000000;stroke-width:2;stroke-linecap:round;stroke-linejoin:bevel"
     inkscape:connector-curvature="0"
     id="path50"
     d="m 272,112 c 16,0 16,32 16,32" />
  <path
     style="fill:none;stroke:#000000;stroke-width:2;stroke-linecap:round;stroke-linejoin:bevel"
     inkscape:connector-curvature="0"
     id="path52"
     d="M 343.7486,80 C 343.43575,104.06145 336,160 304,160"
     sodipodi:nodetypes="cc" />
  <path
     style="fill:none;stroke:#000000;stroke-width:2;stroke-linecap:round;stroke-linejoin:bevel"
     inkscape:connector-curvature="0"
     id="path54"
     d="m 128,144 c -2.35196,-14.68156 0,-32 16,-32"
     sodipodi:nodetypes="cc" />
  <path
     style="fill:none;stroke:#000000;stroke-width:2;stroke-linecap:round;stroke-linejoin:bevel"
     inkscape:connector-curvature="0"
     id="path56"
     d="M 112,160 C 80.284916,159.59218 32,144 64,80"
     sodipodi:nodetypes="cc" />
</svg>

<svg xmlns="http://www.w3.org/2000/svg"
   xmlns:xlink="http://www.w3.org/1999/xlink"
   version="1.1"
   id="res-parallel" width="100%" height="100%"  viewBox="-6 -6 438 230">
<desc>
XCircuit Version 3.7
File "res-parallel.ps" Page 1
</desc>
<g stroke="black">
<g transform="matrix(   1    0   -0    1  32  64)" fill="#000000" >
<text stroke="none" font-family="Helvetica" font-size="40" ><tspan x="0" y="0">SEN</tspan>
</text></g>
<g transform="matrix(   1    0   -0    1 304  64)" fill="#000000" >
<text stroke="none" font-family="Helvetica" font-size="40" ><tspan x="0" y="0">GND</tspan>
</text></g>
<path d="M144,112 L172,112 " fill="none" stroke-width="2" stroke-linejoin="bevel" stroke-linecap="round" stroke="#000000" />
<path d="M272,112 L244,112 " fill="none" stroke-width="2" stroke-linejoin="bevel" stroke-linecap="round" stroke="#000000" />
<path d="M244,112 L238,98 226,126 214,98 202,126 190,98 178,126 172,112 " fill="none" stroke-width="2" stroke-linejoin="bevel" stroke-linecap="round" stroke="#000000" />
<path d="M288,16 L288,80 400,80 400,16 z" fill="none" stroke-width="2" stroke-linejoin="bevel" stroke-linecap="round" stroke="#000000" />
<path d="M16,16 L16,80 128,80 128,16 z" fill="none" stroke-width="2" stroke-linejoin="bevel" stroke-linecap="round" stroke="#000000" />
<g transform="matrix(   1    0   -0    1 192 208)" fill="#000000" >
<text stroke="none" font-family="Helvetica" font-size="40" ><tspan x="0" y="0">R1</tspan>
</text></g>
<ellipse cx="288" cy="160" rx="16" ry="16" fill="none" stroke-width="2" stroke-linejoin="bevel" stroke-linecap="round" stroke="#000000" />
<ellipse cx="128" cy="160" rx="16" ry="16" fill="none" stroke-width="2" stroke-linejoin="bevel" stroke-linecap="round" stroke="#000000" />
<path d="M0,0 L0,224 432,224 432,0 z" fill="none" stroke-width="2" stroke-linejoin="bevel" stroke-linecap="round" stroke="#000000" />
<path d="M144,160 L172,160 " fill="none" stroke-width="2" stroke-linejoin="bevel" stroke-linecap="round" stroke="#000000" />
<path d="M272,160 L244,160 " fill="none" stroke-width="2" stroke-linejoin="bevel" stroke-linecap="round" stroke="#000000" />
<path d="M244,160 L238,146 226,174 214,146 202,174 190,146 178,174 172,160 " fill="none" stroke-width="2" stroke-linejoin="bevel" stroke-linecap="round" stroke="#000000" />
<g transform="matrix(   1    0   -0    1 192  80)" fill="#000000" >
<text stroke="none" font-family="Helvetica" font-size="40" ><tspan x="0" y="0">R2</tspan>
</text></g>
<path d="M272,112 C288,112 288,144 288,144 " fill="none" stroke-width="2" stroke-linejoin="bevel" stroke-linecap="round" stroke="#000000" />
<path d="M336,80 C352,80 336,160 304,160 " fill="none" stroke-width="2" stroke-linejoin="bevel" stroke-linecap="round" stroke="#000000" />
<path d="M128,144 C144,144 128,112 144,112 " fill="none" stroke-width="2" stroke-linejoin="bevel" stroke-linecap="round" stroke="#000000" />
<path d="M112,160 C128,160 32,144 64,80 " fill="none" stroke-width="2" stroke-linejoin="bevel" stroke-linecap="round" stroke="#000000" />
</g>
</svg>
